X:68
T:BarFly
R:reel
C:Paul S. Cranford
O:Cape Breton Island
S:http://www.cranfordpub.com
D:currently unrecorded
B:currently unpublished in book form
Z:psc, 01/10/2004
N:for Phil Taylor, creator of the visionary ABC program "BarFly"
H:                                                        copyrights Cranford Publications, SOCAN
L:1/8
Q:333
M:C|
K:Edor
E2 B,E G,B,EA|GFGA FDAF|EedB efge|dcdA FDAF|
E2 B,E G,B,EA|GFGA FDAF|EedB efge|1dcdf e2 eF:|2dcdf e2 e||
|:f|gBeB gBef|gBbB adef|gBeB gBec|dcdf e2 ef|
gBeB gBef|gBbB adef|gBbg adfe|1dcdf e2 e:|2dcdf e2 e z|]
